images/service-icon-3.svg

<svg fill="none" height="83" viewBox="0 0 83 83" width="83" xmlns="http://www.w3.org/2000/svg"><path d="m28.9392 17.858c1.3435 1.3435 3.4104 1.3435 4.7539 0l5.5806-5.5806c1.3434-1.3434 3.4103-1.3434 4.7538 0l5.7872 5.7873c1.3435 1.3435 1.3435 3.4104.0001 4.7538l-49.295211 49.2952 10.541111 10.5411 49.2951-49.2952c1.3435-1.3434 3.4104-1.3434 4.7539 0l5.7873 5.7873c1.3434 1.3435 1.3434 3.4104 0 4.7538l-5.5806 5.5806c-1.3435 1.3435-1.3435 3.4104 0 4.7539l5.7872 5.7872c1.3435 1.3435 1.3435 3.4104 0 4.7539l-5.5805 5.5805c-1.3435 1.3435-1.3435 3.4104 0 4.7539l5.7872 5.7872c1.3435 1.3435 3.4104 1.3435 4.7539 0l5.5805-5.5806c1.3435-1.3434 1.3435-3.4103 0-4.7538l-5.7872-5.7872c-1.3435-1.3435-1.3435-3.4104 0-4.7539l5.5806-5.5806c1.3434-1.3434 1.3434-3.4103-.0001-4.7538l-5.7872-5.7873c-1.3435-1.3434-1.3435-3.4103 0-4.7538l5.5806-5.5806c1.3434-1.3435 1.3434-3.4103 0-4.7538l-5.7873-5.7873c-1.3435-1.3435-1.3435-3.4103 0-4.7538l5.5806-5.5806c1.3435-1.3435 1.3435-3.41035 0-4.75382l-5.7873-5.78728c-1.3435-1.343473-3.4103-1.343472-4.7538 0l-5.5806 5.58059c-1.3435 1.34347-3.4104 1.34346-4.7538-.00001l-5.7873-5.78726c-1.3435-1.34348-3.4104-1.343486-4.7538-.00001l-5.5806 5.58058c-1.3435 1.34348-3.4104 1.34348-4.7539.00001l-5.7872-5.78727c-1.3435-1.343477-3.4104-1.343476-4.7539 0l-5.5805 5.58058c-1.3435 1.34347-3.4104 1.34347-4.7539 0l-5.7872-5.78728c-1.3435-1.34347-3.41039-1.343472-4.75387 0l-5.58058 5.58058c-1.343475 1.34348-1.343473 3.41039 0 4.75379l5.78727 5.7873c1.34348 1.3435 3.41038 1.3435 4.75388 0l5.5805-5.5806c1.3435-1.3434 3.4104-1.3434 4.7539 0zm31.21-5.3739c1.3434-1.3435 3.4103-1.3435 4.7538 0l5.7873 5.7873c1.3434 1.3435 1.3434 3.4103 0 4.7538l-5.5806 5.5806c-1.3435 1.3435-3.4104 1.3435-4.7539 0l-5.7872-5.7873c-1.3435-1.3434-1.3435-3.4103 0-4.7538z" fill="#C9FE6E"/></svg>

<svg width="83" height="83" viewBox="0 0 83 83" fill="none" xmlns="http://www.w3.org/2000/svg">
<g clip-path="url(#clip0_526_13)">
<path d="M28.9391 17.8584C30.2826 19.2019 32.3495 19.2019 33.693 17.8584L39.2736 12.2778C40.617 10.9344 42.6839 10.9344 44.0274 12.2778L49.8146 18.0651C51.1581 19.4086 51.1581 21.4755 49.8147 22.8189L0.519531 72.1141L11.0606 82.6552L60.3557 33.36C61.6992 32.0166 63.7661 32.0166 65.1096 33.36L70.8969 39.1473C72.2403 40.4908 72.2403 42.5577 70.8969 43.9011L65.3163 49.4817C63.9728 50.8252 63.9728 52.8921 65.3163 54.2356L71.1035 60.0228C72.447 61.3663 72.447 63.4332 71.1035 64.7767L65.523 70.3572C64.1795 71.7007 64.1795 73.7676 65.523 75.1111L71.3102 80.8983C72.6537 82.2418 74.7206 82.2418 76.0641 80.8983L81.6446 75.3177C82.9881 73.9743 82.9881 71.9074 81.6446 70.5639L75.8574 64.7767C74.5139 63.4332 74.5139 61.3663 75.8574 60.0228L81.438 54.4422C82.7814 53.0988 82.7814 51.0319 81.4379 49.6884L75.6507 43.9011C74.3072 42.5577 74.3072 40.4908 75.6507 39.1473L81.2313 33.5667C82.5747 32.2232 82.5747 30.1564 81.2313 28.8129L75.444 23.0256C74.1005 21.6821 74.1005 19.6153 75.444 18.2718L81.0246 12.6912C82.3681 11.3477 82.3681 9.28088 81.0246 7.93741L75.2373 2.15013C73.8938 0.806661 71.827 0.806662 70.4835 2.15013L64.9029 7.73072C63.5594 9.07419 61.4925 9.07418 60.1491 7.73071L54.3618 1.94345C53.0183 0.599974 50.9514 0.599968 49.608 1.94344L44.0274 7.52402C42.6839 8.8675 40.617 8.8675 39.2735 7.52403L33.4863 1.73676C32.1428 0.393287 30.0759 0.393288 28.7324 1.73676L23.1519 7.31734C21.8084 8.66081 19.7415 8.66081 18.398 7.31734L12.6108 1.53006C11.2673 0.186594 9.20045 0.186592 7.85697 1.53006L2.27639 7.11064C0.932917 8.45412 0.932919 10.521 2.27639 11.8644L8.06366 17.6517C9.40714 18.9952 11.474 18.9952 12.8175 17.6517L18.398 12.0711C19.7415 10.7277 21.8084 10.7277 23.1519 12.0711L28.9391 17.8584ZM60.1491 12.4845C61.4925 11.141 63.5594 11.141 64.9029 12.4845L70.6902 18.2718C72.0336 19.6153 72.0336 21.6821 70.6902 23.0256L65.1096 28.6062C63.7661 29.9497 61.6992 29.9497 60.3557 28.6062L54.5685 22.8189C53.225 21.4755 53.225 19.4086 54.5685 18.0651L60.1491 12.4845Z" fill="black"/>
</g>
<defs>
<clipPath id="clip0_526_13">
<rect width="83" height="83" fill="white"/>
</clipPath>
</defs>
</svg>
